packages/plugin/src/icon.svg

<svg height="82" viewBox="0 0 82 82" width="82" xmlns="http://www.w3.org/2000/svg"><path d="m0 0h82v82h-82z" fill="none"/><path d="m41-0c-33.498 0-41 .316-41 41s7.502 41 41 41 41-.316 41-41c0-40.684-7.502-41-41-41z" fill="#2296f3"/><path d="m20.727 19.175 24.269-6.503c4.801-1.287 9.736 1.563 11.022 6.364l9.249 34.517c1.286 4.801-1.563 9.736-6.364 11.022l-24.269 6.503c-4.801 1.287-9.736-1.563-11.023-6.364l-9.248-34.517c-1.287-4.801 1.562-9.736 6.364-11.022z" fill="#fff"/><path d="m65.535 15.913c1.539.374 2.505 1.709 2.127 3.121-.377 1.412-8.573 31.665-8.573 31.665-1.319 1.802-2.638 3.603-3.949 5.411-.229.316-.65.208-.677-.209l-.917-6.703s8.189-30.245 8.576-31.664c.388-1.419 1.874-1.995 3.413-1.621z" fill="#ff6624"/><g fill="#2396f3"><path d="m32.885 54.711 5.611-1.503c1.372-.368 2.782.447 3.15 1.819l.17.636c.368 1.372-.446 2.783-1.818 3.15l-5.611 1.504c-1.372.367-2.782-.447-3.15-1.819l-.17-.637c-.368-1.372.446-2.782 1.818-3.15z"/><path d="m37.117 26.982 10.169-2.724c.712-.191 1.445.232 1.636.944.191.713-.232 1.445-.945 1.636l-10.168 2.724c-.713.191-1.445-.231-1.636-.944-.191-.712.232-1.445.944-1.636z"/><path d="m38.785 33.205 10.168-2.725c.713-.191 1.445.232 1.636.945.191.712-.232 1.444-.944 1.635l-10.169 2.725c-.712.191-1.445-.232-1.636-.944-.19-.713.232-1.445.945-1.636z"/><path d="m52.757 42.826.098.056-.743 2.774-21.408 5.736c-.724.194-1.466-.226-1.657-.939-.191-.712.241-1.447.965-1.641l22.208-5.951z"/><path d="m28.365 42.665 22.208-5.95c.724-.194 1.465.226 1.656.939.191.712-.241 1.447-.965 1.641l-22.207 5.95c-.724.194-1.466-.226-1.657-.938-.191-.713.242-1.448.965-1.642z"/><path d="m31.132 28.601c.798-.213 1.619.26 1.833 1.059l1.597 5.962c.214.798-.26 1.619-1.058 1.833l-5.962 1.597c-.799.214-1.619-.26-1.833-1.058l-1.598-5.962c-.214-.799.26-1.619 1.058-1.833zm-.633 2.155-3.704.992c-.399.107-.636.518-.529.917l.992 3.704c.107.399.518.636.917.529l3.703-.993c.4-.107.637-.517.53-.916l-.993-3.704c-.107-.399-.517-.636-.916-.529z"/></g></svg>

<?xml version="1.0" encoding="UTF-8"?>
<!DOCTYPE svg PUBLIC "-//W3C//DTD SVG 1.1//EN" "http://www.w3.org/Graphics/SVG/1.1/DTD/svg11.dtd">
<svg version="1.1" xmlns="http://www.w3.org/2000/svg" xmlns:xlink="http://www.w3.org/1999/xlink" x="0" y="0" width="82" height="82" viewBox="0, 0, 82, 82">
  <g id="Freeform">
    <path d="M41,82 C18.356,82 0,63.644 0,41 C0,18.356 18.356,0 41,0 C63.644,0 82,18.356 82,41 C82,63.644 63.644,82 41,82 z" fill="#058FFE"/>
    <path d="M32.523,16.137 C41.252,13.806 37.455,14.818 43.913,13.098 C53.59,10.562 55.645,18.129 56.344,20.596 C56.759,22.098 57.161,23.604 57.566,25.109 L55.909,31.293 C55.005,27.968 54.134,24.633 53.171,21.324 C51.713,16.46 49.73,15.053 44.469,16.28 C39.425,17.64 24.543,21.604 22.632,22.139 C19.615,23 16.338,24.646 17.878,30.641 C19.408,36.362 23.76,52.598 26.31,62.114 C28.113,69.046 31.975,68.151 35.009,67.507 C37.675,66.816 53.524,62.568 56.903,61.629 C62.086,60.188 62.837,57.455 61.611,52.718 L61.212,51.213 L62.887,44.966 C63.505,47.278 64.123,49.591 64.742,51.904 C67.202,61.104 61.851,63.48 57.633,64.809 C55.348,65.428 44.417,68.355 36.039,70.598 C26.212,73.291 23.962,65.644 23.238,62.989 C22.514,60.334 16.454,37.695 14.809,31.515 C12.197,21.898 19.563,19.676 21.751,19.048 C25.336,18.057 28.931,17.101 32.523,16.137 z" fill="#FFFFFF"/>
    <path d="M65.535,15.913 C67.074,16.287 68.04,17.622 67.662,19.034 C67.285,20.446 59.089,50.699 59.089,50.699 L59.089,50.699 C57.77,52.501 56.451,54.302 55.14,56.11 C54.911,56.426 54.49,56.318 54.463,55.901 L53.546,49.198 C53.546,49.198 61.735,18.953 62.122,17.534 C62.51,16.115 63.996,15.539 65.535,15.913 z" fill="#FF6624" id="Pencil"/>
    <path d="M32.885,54.711 L38.496,53.208 C39.868,52.84 41.278,53.655 41.646,55.027 L41.816,55.663 C42.184,57.035 41.37,58.446 39.998,58.813 L34.387,60.317 C33.015,60.684 31.605,59.87 31.237,58.498 L31.067,57.861 C30.699,56.489 31.513,55.079 32.885,54.711 z" fill="#FFFFFF"/>
    <path d="M37.117,26.982 L47.286,24.258 C47.998,24.067 48.731,24.49 48.922,25.202 L48.922,25.202 C49.113,25.915 48.69,26.647 47.977,26.838 L37.809,29.562 C37.096,29.753 36.364,29.331 36.173,28.618 L36.173,28.618 C35.982,27.906 36.405,27.173 37.117,26.982 z" fill="#FFFFFF"/>
    <path d="M38.785,33.205 L48.953,30.48 C49.666,30.289 50.398,30.712 50.589,31.425 L50.589,31.425 C50.78,32.137 50.357,32.869 49.645,33.06 L39.476,35.785 C38.764,35.976 38.031,35.553 37.84,34.841 L37.84,34.841 C37.65,34.128 38.072,33.396 38.785,33.205 z" fill="#FFFFFF"/>
    <path d="M52.757,42.826 L52.855,42.882 L52.112,45.656 L30.704,51.392 C29.98,51.586 29.238,51.166 29.047,50.453 C28.856,49.741 29.288,49.006 30.012,48.812 L52.22,42.861 L52.757,42.826 z" fill="#FFFFFF"/>
    <path d="M28.365,42.665 L50.573,36.715 C51.297,36.521 52.038,36.941 52.229,37.654 L52.229,37.654 C52.42,38.366 51.988,39.101 51.264,39.295 L29.057,45.245 C28.333,45.439 27.591,45.019 27.4,44.307 L27.4,44.307 C27.209,43.594 27.642,42.859 28.365,42.665 z" fill="#FFFFFF"/>
    <path d="M31.132,28.601 C31.93,28.388 32.751,28.861 32.965,29.66 L34.562,35.622 C34.776,36.42 34.302,37.241 33.504,37.455 L27.542,39.052 C26.743,39.266 25.923,38.792 25.709,37.994 L24.111,32.032 C23.897,31.233 24.371,30.413 25.169,30.199 L31.132,28.601 z M30.499,30.756 L26.795,31.748 C26.396,31.855 26.159,32.266 26.266,32.665 L27.258,36.369 C27.365,36.768 27.776,37.005 28.175,36.898 L31.878,35.905 C32.278,35.798 32.515,35.388 32.408,34.989 L31.415,31.285 C31.308,30.886 30.898,30.649 30.499,30.756 z" fill="#FFFFFF"/>
  </g>
</svg>
